!!!COM: Scarlatti, Domenico
!!!CDT: 1685///-1757///
!!!OTL: Sonata in F Major, K.85, L.166
!!!SCT: K. 085
!!!SCT: L. 166
!!!OMD: Allegro
**kern	**dynam	**kern	**dynam
*staff2	*staff2	*staff1	*staff1
*>[A,A]	*>[A,A]	*>[A,A]	*>[A,A]
*>norep[A]	*>norep[A]	*>norep[A]	*>norep[A]
*>A	*>A	*>A	*>A
*clefF4	*clefF4	*clefG2	*clefG2
*k[b-]	*k[b-]	*k[b-]	*k[b-]
*F:	*F:	*F:	*F:
*met(c)	*met(c)	*met(c)	*met(c)
*M4/4	*M4/4	*M4/4	*M4/4
*MM126	*MM126	*MM126	*MM126
4r	.	16r	.
.	.	(16cc\LL	.
.	.	16dd\	.
.	.	16ee\JJ	.
=1	=1	=1	=1
4F^\	.	8ff'\L)	.
.	.	8cc'\	.
4r	.	8a'\	.
.	.	8f'\J	.
4F^\	.	8ff'\L	.
.	.	8cc'\	.
4r	.	8a'\	.
.	.	8f'\J	.
=2	=2	=2	=2
(4F^\	.	8ff'\L	.
.	.	(16ee\L	.
.	.	16ff\JJ	.
4C/	.	16gg\LL	.
.	.	16aa\	.
.	.	16bb-\	.
.	.	16gg\JJ	.
4FF/)	.	16aa\LL	.
.	.	16cc\	.
.	.	16dd\	.
.	.	16ee\JJ	.
8r	.	16ff\LL	.
.	.	16cc\	.
8F'\	.	16ff\	p
.	.	16cc\JJ	.
=3	=3	=3	=3
(8E/L	.	16gg\LL	.
.	.	16cc\	.
8C/	.	16gg\	.
.	.	16cc\JJ	.
8F/	.	16aa\LL	.
.	.	16cc\	.
8FF/J	.	16aa\	.
.	.	16cc\JJ	.
4C/)	.	16gg\LL	.
.	.	16ff\	.
.	.	16ee\	.
.	.	16dd\JJ	.
16r	.	4cc\)	<
(16C\LL	.	.	(
16D\	.	.	(
16E\JJ	.	.	(
=4	=4	=4	=4
16F\LL	.	8r	(
16C\	.	.	(
16F\	.	(8cc\L	(
16C\JJ	.	.	(
16F\LL	.	8ff\)	(
16C\	.	.	(
16F\	.	8f'\J	(
16C\JJ	.	.	(
16G\LL	.	8r	(
16C\	.	.	(
16G\	.	(8ee\L	(
16C\JJ	.	.	(
16G\LL	.	8gg\)	(
16C\	.	.	(
16G\	.	8g'\J	(
16C\JJ	.	.	(
=5	=5	=5	=5
16A\LL	.	8r	(
16C\	.	.	(
16A\	.	(8ff\L	(
16C\JJ	.	.	(
16A\LL	.	8aa\)	(
16C\	.	.	(
16A\	.	8a'\J	(
16C\JJ	.	.	(
16B-\LL	.	8r	(
16c\	.	.	(
16B-\	.	(8gg\L	(
16A\JJ	.	.	(
16G\LL	.	8bb-\)	(
16F\	.	.	(
16E\	.	8b-'\J	(
16D\JJ	.	.	[
=6	=6	=6	=6
4C/)	.	8bb-'^\L	f
.	.	(16aa\L	.
.	.	16gg\JJ	.
(4F\	.	16aa\LL	.
.	.	16ff\	.
.	.	16ee\	.
.	.	16ff\JJ	.
4BB-/	.	16gg\LL	.
.	.	16aa\	.
.	.	16bb-\	.
.	.	16gg\JJ	.
4C/	.	16aa\LL	.
.	.	16ff\	.
.	.	16gg\	.
.	.	16ee\JJ	.
=7	=7	=7	=7
4FF/)	.	16ff\LL	.
.	.	16cc\	.
.	.	16dd\	.
.	.	16ee\JJ	.
8r	.	16ff\LL	.
.	.	16cc\	.
8F'\	.	16ff\	p
.	.	16cc\JJ	.
(8E/L	.	16gg\LL	.
.	.	16cc\	.
8C/	.	16gg\	.
.	.	16cc\JJ	.
8F/	.	16aa\LL	.
.	.	16cc\	.
8FF/J	.	16aa\	.
.	.	16cc\JJ	.
=8	=8	=8	=8
4C/)	.	16gg\LL	.
.	.	16ff\	.
.	.	16ee\	.
.	.	16dd\JJ	.
16r	.	4cc\)	.
(16C\LL	.	.	.
16D\	.	.	.
16E\JJ	.	.	.
4F\)	.	16r	.
.	.	(16a\LL	.
.	.	16bn\	.
.	.	16cc\JJ	.
16r	.	4dd\)	.
(16D\LL	.	.	.
16E\	.	.	.
16F\JJ	.	.	.
=9	=9	=9	=9
4G\)	.	16r	.
.	.	(16dd\LL	.
.	.	16ee\	.
.	.	16ff\JJ	.
16r	.	4gg\)	.
(16GG/LL	.	.	.
16AA/	.	.	.
16BBn/JJ	.	.	.
4C/)	.	16r	.
.	.	(16g\LL	.
.	.	16a\	.
.	.	16bn\JJ	.
8r	.	16cc\LL	.
.	.	16g\	.
8c'\	.	16cc\	.
.	.	16g\JJ	.
=10	=10	=10	=10
(8Bn\L	.	16dd\LL	.
.	.	16g\	.
8G\	.	16dd\	.
.	.	16g\JJ	.
8c\	.	16ee\LL	.
.	.	16g\	.
8C\J	.	16ee\	.
.	.	16g\JJ	.
4G\)	.	16dd\LL	.
.	.	16cc\	.
.	.	16bn\	.
.	.	16a\JJ	.
16r	.	4g/)	.
(16GG/LL	.	.	.
16AA/	.	.	.
16BBn/JJ	.	.	.
=11	=11	=11	=11
16C/LL	.	8r	.
16GG/	.	.	.
16C/	.	(8g/L	.
16GG/JJ	.	.	.
16C/LL	.	8cc/)	.
16GG/	.	.	.
16C/	.	8c'/J	.
16GG/JJ	.	.	.
16D/LL	.	8r	.
16GG/	.	.	.
16D/	.	(8bn/L	.
16GG/JJ	.	.	.
16D/LL	.	8dd/)	.
16GG/	.	.	.
16D/	.	8d'/J	.
16GG/JJ	.	.	.
=12	=12	=12	=12
16E/LL	.	8r	.
16GG/	.	.	.
16E/	.	(8cc\L	.
16GG/JJ	.	.	.
16E/LL	.	8ee\)	.
16GG/	.	.	.
16E/	.	8e'\J	.
16GG/JJ	.	.	.
16F/LL	.	8r	.
16GG/	.	.	.
16F/	.	(8dd\L	.
16GG/JJ	.	.	.
16F/LL	.	8ff\)	.
16GG/	.	.	.
16F/	.	8f'\J	.
16GG/JJ	.	.	.
=13	=13	=13	=13
4G\)	.	8ff'\L	.
.	.	(16ee\L	.
.	.	16dd\JJ	.
(4C/	.	16ee\LL	.
.	.	16cc\	.
.	.	16bn\	.
.	.	16cc\JJ	.
4FF/	.	16dd\LL	.
.	.	16ee\	.
.	.	16ff\	.
.	.	16dd\JJ	.
4GG/	.	16ee\LL	.
.	.	16cc\	.
.	.	16dd\	.
.	.	16b\JJ	.
=14	=14	=14	=14
4CC/)	.	16cc\LL	.
.	.	16g\	.
.	.	16a\	.
.	.	16bn\JJ	.
16r	.	4cc\)	p
(16C\LL	.	.	.
16D\	.	.	.
16E\JJ	.	.	.
4F\)	.	16r	.
.	.	(16a\LL	<
.	.	16b\	(
.	.	16cc#\JJ	(
16r	.	4dd\)	(
(16D\LL	.	.	(
16E\	.	.	(
16F\JJ	.	.	(
=15	=15	=15	=15
4G\)	.	16r	(
.	.	(16dd\LL	(
.	.	16ee\	(
.	.	16ff\JJ	(
(4GG/	.	16gg\LL	(
.	.	16ff\	(
.	.	16ee\	(
.	.	16dd\JJ	(
4AA/)	.	16cc#\LL	(
.	.	16bn\	(
.	.	16cc#\	(
.	.	16dd\JJ	(
(4A\	.	16ee\LL	(
.	.	16a\	(
.	.	16b\	(
.	.	16cc#\JJ	(
=16	=16	=16	=16
4F\	.	16dd\LL	(
.	.	16a\	(
.	.	16dd\	(
.	.	16a\JJ	(
4C#\	.	16ee\LL	(
.	.	16a\	(
.	.	16ee\	(
.	.	16a\JJ	(
4D\	.	16ff\LL	(
.	.	16a\	(
.	.	16ff\	(
.	.	16a\JJ	(
4E\	.	16gg\LL	(
.	.	16a\	(
.	.	16gg\	(
.	.	16a\JJ	[
=17	=17	=17	=17
8F\L	.	16aa\LL	f
.	.	16dd\	.
8G\	.	16gg\	.
.	.	16ee\JJ	.
8A\)	.	16ff\LL	.
.	.	16dd\	.
8AA'\J	.	16ee\	.
.	.	16cc#\JJ	.
4D^\	.	16dd\LL	.
.	.	16a\	.
.	.	16bn\	.
.	.	16cc#\JJ	.
16r	.	4dd\)	p
(16D\LL	.	.	.
16E\	.	.	.
16F#\JJ	.	.	.
=18	=18	=18	=18
4G\)	.	16r	.
.	.	(16d/LL	.
.	.	16e/	.
.	.	16f#/JJ	.
16r	.	4g/)	.
(16GG/LL	.	.	.
16AA/	.	.	.
16BBn/JJ	.	.	.
4C/)	.	16r	.
.	.	(16g/LL	.
.	.	16a/	.
.	.	16bn/JJ)	.
16r	.	4cc\	.
(16C\LL	.	.	.
16D\	.	.	.
16E\JJ	.	.	.
=19	=19	=19	=19
4F\)	.	16r	.
.	.	(16cc\LL	.
.	.	16dd\	.
.	.	16ee\JJ	.
16r	.	4ff\)	.
(16F\LL	.	.	.
16G\	.	.	.
16A\JJ	.	.	.
4B-\)	.	16r	.
.	.	(16ff\LL	.
.	.	16gg\	.
.	.	16aa\JJ	.
8r	.	16bb-\LL	.
.	.	16aa\	.
8BB-'/	.	16gg\	.
.	.	16ff\JJ	.
=20	=20	=20	=20
4C/	.	16ee-\LL	.
.	.	16cc\	.
.	.	16ee-\	.
.	.	16gg\JJ	.
8r	.	16ccc\LL	.
.	.	16bb-\	.
8C'/	.	16aa\	.
.	.	16gg\JJ	.
4D\	.	16ff#\LL	.
.	.	16een\	.
.	.	16ff#\	.
.	.	16gg\JJ	.
16r	.	8aa'\L)	.
(16D\LL	.	.	.
16E\	.	8dd'\J	.
16F#\JJ	.	.	.
=21	=21	=21	=21
16G\LL	.	8r	.
16D\	.	.	.
16G\	.	(8dd\L	.
16D\JJ	.	.	.
16G\LL	.	8gg\)	.
16D\	.	.	.
16G\	.	8g'\J	.
16D\JJ	.	.	.
16A\LL	.	8r	.
16D\	.	.	.
16A\	.	(8ff#\L	.
16D\JJ	.	.	.
16A\LL	.	8aa\)	.
16D\	.	.	.
16A\	.	8a'\J	.
16D\JJ	.	.	.
=22	=22	=22	=22
16B-\LL	.	8r	.
16D\	.	.	.
16B-\	.	(8gg\L	.
16D\JJ	.	.	.
16B-\LL	.	8bb-\)	.
16D\	.	.	.
16c\	.	8b-'\J	.
16D\JJ	.	.	.
16c\LL	.	8r	.
16D\	.	.	.
16c\	.	(8aa\L	.
16D\JJ	.	.	.
16c\LL	.	8ccc\)	.
16D\	.	.	.
16c\	.	8cc'\J	.
[16D\JJ	.	.	.
=23	=23	=23	=23
4D\] 4d\)	.	8ccc'^\L	.
.	.	(16bb-\L	.
.	.	16aa\JJ	.
(4G\	.	16bb-\LL	.
.	.	16gg\	.
.	.	16ff#\	.
.	.	16gg\JJ	.
4C\	.	16aa\LL	.
.	.	16bb-\	.
.	.	16ccc\	.
.	.	16aa\JJ	.
4D\	.	16bb-\LL	.
.	.	16gg\	.
.	.	16aa\	.
.	.	16ff#\JJ	.
=24	=24	=24	=24
4GG/)	.	16gg\LL	.
.	.	16dd\	.
.	.	16ee\	.
.	.	16ff#\JJ	.
16r	.	([4gg\)	.
(16G\LL	.	.	.
16A\	.	.	.
16Bn\JJ	.	.	.
4c\	.	16gg\LL]	.
.	.	16ffn\	.
.	.	16ee\	.
.	.	16dd\JJ	.
4C\	.	16cc\LL	.
.	.	16bn\	.
.	.	16a\	.
.	.	16g\JJ	.
=25	=25	=25	=25
4F\)	.	16a/LL	.
.	.	16f/	.
.	.	16a/	.
.	.	16cc/JJ	.
16r	.	([4ff\)	.
(16F\LL	.	.	.
16G\	.	.	.
16A\JJ	.	.	.
4Bn\	.	16ff\LL]	.
.	.	16ee\	.
.	.	16dd\	.
.	.	16cc\JJ	.
4BBn/	.	16bn/LL	.
.	.	16a/	.
.	.	16g#/	.
.	.	16f#/JJ	.
=26	=26	=26	=26
4E\)	.	16g#/LL	.
.	.	16e/	.
.	.	16g#/	.
.	.	16bn/JJ	.
16r	.	([4ee\)	.
(16E\LL	.	.	.
16F#\	.	.	.
16G#\JJ	.	.	.
4A\	.	16ee\LL]	.
.	.	16ddn\	.
.	.	16cc\	.
.	.	16b\JJ	.
4AA/	.	16a/LL	.
.	.	16gn/	.
.	.	16f/	.
.	.	16e/JJ	.
=27	=27	=27	=27
4D\)	.	16f/LL	.
.	.	16d/	.
.	.	16f/	.
.	.	16a/JJ	.
16r	.	([4dd\)	.
(16d\LL	.	.	.
16c\	.	.	.
16d\JJ	.	.	.
16Bn\LL	.	16dd\LL]	.
16c\	.	16ee\	.
16A\	.	16cc\	.
16B\JJ	.	16dd\JJ	.
16G\LL	.	16bn\LL	.
16A\	.	16cc\	.
16F\	.	16a\	.
16G\JJ	.	16b\JJ	.
=28	=28	=28	=28
4E\)	.	16g/LL	.
.	.	16c/	.
.	.	16e/	.
.	.	16g/JJ	.
16r	.	([4cc\)	.
(16c\LL	.	.	.
16B-\	.	.	.
16c\JJ	.	.	.
16A\LL	.	16cc\LL]	.
16B-\	.	16dd\	.
16G\	.	16b-\	.
16A\JJ	.	16cc\JJ	.
16F\LL	.	16a\LL	.
16G\	.	16b-\	.
16E\	.	16g\	.
16F\JJ	.	16a\JJ	.
=29	=29	=29	=29
4D/)	.	16f/LL	.
.	.	16g/	.
.	.	16a/	.
.	.	16b-/JJ	.
(4C/	.	16cc\LL	.
.	.	16dd\	.
.	.	16ee\	.
.	.	16cc\JJ	.
16D\LL	.	4ff\)	.
16E\	.	.	.
16F\	.	.	.
16G\JJ	.	.	.
16A\LL	.	(4ee\	.
16B-\	.	.	.
16c\	.	.	.
16A\JJ	.	.	.
=30	=30	=30	=30
4B-\)	.	16dd\LL	.
.	.	16ee\	.
.	.	16ff\	.
.	.	16gg\JJ	.
(4A\	.	16aa\LL	.
.	.	16bb-\	.
.	.	16ccc\	.
.	.	16aa\JJ	.
4G\	.	16bb-\LL	.
.	.	16aa\	.
.	.	16gg\	.
.	.	16ff\JJ	.
4C\	.	16ee\LL	.
.	.	16dd\	.
.	.	16cc\	.
.	.	16b-\JJ	.
=31	=31	=31	=31
4F\)	.	16a/LL	.
.	.	16g/	.
.	.	16a/	.
.	.	16bn/JJ	.
16r	.	4cc\)	.
(16C\LL	.	.	.
16D\	.	.	.
16E\JJ	.	.	.
16F\LL	.	8r	.
16C\	.	.	.
16F\	.	(8cc\L	.
16C\JJ	.	.	.
16F\LL	.	8ff\)	.
16C\	.	.	.
16F\	.	8f'\J	.
16C\JJ	.	.	.
=32	=32	=32	=32
16G\LL	.	8r	.
16C\	.	.	.
16G\	.	(8ee\L	.
16C\JJ	.	.	.
16G\LL	.	8gg\)	.
16C\	.	.	.
16G\	.	8g'\J	.
16C\JJ	.	.	.
4A\)	.	16r	.
.	.	(16cc\LL	.
.	.	16dd\	.
.	.	16ee\JJ	.
8r	.	16ff\LL	.
.	.	16cc\	.
8F'\	.	16ff\	.
.	.	16cc\JJ	.
=33	=33	=33	=33
(8E\L	.	16gg\LL	.
.	.	16cc\	.
8C\	.	16gg\	.
.	.	16cc\JJ	.
8F\	.	16aa\LL	.
.	.	16cc\	.
8FF\J	.	16aa\	.
.	.	16cc\JJ	.
[4C/	.	16gg\LL	.
.	.	16ff\	.
.	.	16ee\	.
.	.	16dd\JJ	.
16C\LL]	.	4cc\)	.
16D\	.	.	.
16E\	.	.	.
16F#\JJ	.	.	.
=34	=34	=34	=34
4G\)	.	16r	.
.	.	(16dd\LL	.
.	.	16ee\	.
.	.	16ff#\JJ	.
8r	.	16gg\LL	.
.	.	16dd\	.
8G'\	.	16gg\	.
.	.	16dd\JJ	.
(8F#\L	.	16aa\LL	.
.	.	16dd\	.
8D\	.	16aa\	.
.	.	16dd\JJ	.
8G\	.	16bb-\LL	.
.	.	16dd\	.
8GG\J	.	16bb-\	.
.	.	16dd\JJ	.
=35	=35	=35	=35
[4D\	.	16aa\LL	.
.	.	16gg\	.
.	.	16ff#\	.
.	.	16ee\JJ	.
16D\LL]	.	4dd\)	.
16E\	.	.	.
16F#\	.	.	.
16G#\JJ	.	.	.
4A\)	.	16r	.
.	.	(16ee\LL	.
.	.	16ff#\	.
.	.	16gg#\JJ	.
8r	.	16aa\LL	.
.	.	16ee\	.
8A'\	.	16aa\	.
.	.	16ee\JJ	.
=36	=36	=36	=36
(8G#\L	.	16bbn\LL	.
.	.	16ee\	.
8E\	.	16bb\	.
.	.	16ee\JJ	.
8A\	.	16ccc\LL	.
.	.	16ee\	.
8AA\J	.	16ccc\	.
.	.	16ee\JJ	.
[4E\	.	16bb\LL	.
.	.	16aa\	.
.	.	16gg#\	.
.	.	16ff#\JJ	.
16E\LL]	.	([4ee\)	.
16D\	.	.	.
16C\	.	.	.
16BBn\JJ	.	.	.
=37	=37	=37	=37
4AA/)	.	16ee\LL]	.
.	.	16dd\	.
.	.	16cc\	.
.	.	16bn\JJ	.
(4C/	.	16a/LL	.
.	.	16g/	.
.	.	16f/	.
.	.	16e/JJ	.
4D/)	.	16f/LL	.
.	.	16d/	.
.	.	16f/	.
.	.	16a/JJ	.
(16d\LL	.	([4dd\)	.
16c\	.	.	.
16Bn\	.	.	.
16A\JJ	.	.	.
=38	=38	=38	=38
4G\)	.	16dd\LL]	.
.	.	16cc\	.
.	.	16bn\	.
.	.	16a\JJ	.
(4GG/	.	16g/LL	.
.	.	16f/	.
.	.	16e/	.
.	.	16d/JJ	.
4C/)	.	16e/LL	.
.	.	16c/	.
.	.	16e/	.
.	.	16g/JJ	.
16r	.	4cc\)	.
(16C\LL	.	.	.
16D\	.	.	.
16E\JJ	.	.	.
=39	=39	=39	=39
16F\LL	.	[4cc\	.
16G\	.	.	.
16A\	.	.	.
16Bn\JJ	.	.	.
4c\	.	16cc/LL]	.
.	.	16bn/	.
.	.	16a/	.
.	.	16g/JJ	.
4d'\)	.	16f/LL	.
.	.	16d/	.
.	.	16f/	.
.	.	16a/JJ	.
16r	.	([4dd\	.
(16D\LL	.	.	.
16E\	.	.	.
16F#\JJ	.	.	.
=40	=40	=40	=40
16G\LL	.	4dd\_	.
16A\	.	.	.
16Bn\	.	.	.
16c\JJ	.	.	.
4d\	.	16dd\LL]	.
.	.	16cc\	.
.	.	16bn\	.
.	.	16a\JJ	.
4e'\)	.	16g#/LL	.
.	.	16e/	.
.	.	16g#/	.
.	.	16b/JJ	.
16r	.	4ee\)	.
(16E\LL	.	.	.
16F#\	.	.	.
16G#\JJ	.	.	.
=41	=41	=41	=41
16A\LL	.	8r	.
16E\	.	.	.
16A\	.	(8ee\L	.
16E\JJ	.	.	.
16A\LL	.	8aa\)	.
16E\	.	.	.
16A\	.	8a'\J	.
16E\JJ	.	.	.
16Bn\LL	.	8r	.
16E\	.	.	.
16B\	.	(8gg#\L	.
16E\JJ	.	.	.
16B\LL	.	8bbn\)	.
16E\	.	.	.
16B\	.	8bn'\J	.
16E\JJ	.	.	.
=42	=42	=42	=42
4c\)	.	16r	.
.	.	(16ee\LL	.
.	.	16ffn\	.
.	.	16ggn\JJ	.
8r	.	16aa\LL	.
.	.	16gg\	.
(8C\	.	16ff\	.
.	.	16ee\JJ	.
8D\L	.	16ff\LL	.
.	.	16ee\	.
8E\	.	16dd\	.
.	.	16cc\JJ	.
8F\	.	16dd\LL	.
.	.	16cc\	.
8D\J	.	16b-\	.
.	.	16a\JJ	.
=43	=43	=43	=43
8G\L	.	16b-\LL	.
.	.	16g\	.
8GG\J)	.	16b-\	.
.	.	16dd\JJ	.
8r	.	16gg\LL	.
.	.	16ff\	.
(8GG/	.	16ee\	.
.	.	16dd\JJ	.
8C/L	.	16ee\LL	.
.	.	16dd\	.
8D/	.	16cc\	.
.	.	16b-\JJ	.
8E/	.	16cc\LL	.
.	.	16b-\	.
8C/J	.	16a\	.
.	.	16g\JJ	.
=44	=44	=44	=44
8F/L	.	16a/LL	.
.	.	16f/	.
8FF/J)	.	16a/	.
.	.	16cc/JJ	.
8r	.	16ff\LL	.
.	.	16ee\	.
8A'\	.	16dd\	.
.	.	16cc\JJ	.
(4B-\	.	16dd\LL	.
.	.	16cc\	.
.	.	16b-\	.
.	.	16a\JJ	.
4BB-/	.	16b-/LL	.
.	.	16a/	.
.	.	16g/	.
.	.	16f/JJ	.
=45	=45	=45	=45
4C/)	.	16e/LL	.
.	.	16f/	.
.	.	16g/	.
.	.	32a/L	.
.	.	32bn/JJJ	.
16r	.	4cc\)	.
16C\LL	.	.	.
(16D\	.	.	.
16E\JJ	.	.	.
16F\LL	.	8r	.
16C\	.	.	.
16F\	.	(8cc\L	.
16C\JJ	.	.	.
16F\LL	.	8ff\)	.
16C\	.	.	.
16F\	.	8f'\J	.
16C\JJ	.	.	.
=46	=46	=46	=46
16G\LL	.	8r	.
16C\	.	.	.
16G\	.	(8ee\L	.
16C\JJ	.	.	.
16G\LL	.	8gg\)	.
16C\	.	.	.
16G\	.	8g'\J	.
16C\JJ	.	.	.
16A\LL	.	8r	.
16C\	.	.	.
16A\	.	(8ff\L	.
16C\JJ	.	.	.
16A\LL	.	8aa\)	.
16C\	.	.	.
16A\	.	8a'\J	.
16C\JJ	.	.	.
=47	=47	=47	=47
16B-\LL	.	8r	.
16C\	.	.	.
16B-\	.	(8gg\L	.
16C\JJ	.	.	.
16B-\LL	.	8bb-\)	.
16C\	.	.	.
16B-\	.	8b-'\J	.
16C\JJ	.	.	.
16c\LL	.	8r	.
16B-\	.	.	.
16A\	.	(8cc\L	.
16G\JJ	.	.	.
16F\LL	.	8ff\)	.
16E\	.	.	.
16D\	.	8f'\J	.
16C\JJ	.	.	.
=48	=48	=48	=48
4BB-/)	.	16r	.
.	.	(16ff\LL	.
.	.	16gg\	.
.	.	16ff\JJ	.
(4C/	.	16ee\LL	.
.	.	16dd\	.
.	.	16cc\	.
.	.	16b-\JJ	.
4FF/)	.	16a/LL	.
.	.	16f/	.
.	.	16a/	.
.	.	16cc/JJ	.
4r	.	16ff\LL	.
.	.	16cc\	.
.	.	16a\	.
.	.	16cc\JJ	.
=49	=49	=49	=49
16r	.	4f/)	.
(16c\LL	.	.	.
16A\	.	.	.
16c\JJ	.	.	.
16F\LL	.	4r	.
16A\	.	.	.
16C\	.	.	.
16F\JJ	.	.	.
4FF/)	.	2r	.
4r	.	.	.
==:|!	==:|!	==:|!	==:|!
*-	*-	*-	*-
